media/ico/ico_markeroff.svg

<svg width="96" height="96" viewBox="0 0 96 96" fill="none" xmlns="http://www.w3.org/2000/svg">
<path d="M47.9922 8.03906C41.5722 8.03906 35.6733 10.2386 30.9453 13.8906L36.6641 19.6016C39.8881 17.3656 43.788 16.0391 48 16.0391C59.012 16.0391 67.9688 25.0036 67.9688 36.0156C67.9688 39.3716 66.7706 43.4681 64.8906 47.8281L70.8984 53.8359C73.8624 47.5879 75.9688 41.3156 75.9688 36.0156C75.9688 20.5876 63.4162 8.03906 47.9922 8.03906ZM14.8281 9.17188L9.17188 14.8281L21.4922 27.1484C20.5494 29.9356 20.0312 32.9135 20.0312 36.0156C20.0312 53.9476 43.8981 83.0767 44.9141 84.3047L48 88.0469L51.0859 84.3047C51.5595 83.7326 56.9699 77.0187 62.6328 68.2891L81.1719 86.8281L86.8281 81.1719L66.9609 61.3047C66.9724 61.2847 66.9885 61.27 67 61.25L61.1406 55.3984C61.1305 55.4167 61.1195 55.4348 61.1094 55.4531L31.1172 25.4609C31.1295 25.4413 31.136 25.4181 31.1484 25.3984L25.375 19.625C25.3619 19.643 25.349 19.6616 25.3359 19.6797L14.8281 9.17188ZM48.0703 26.0703C46.6223 26.0703 45.2518 26.3933 44.0078 26.9453L57.1953 40.1328C57.7513 38.8888 58.0703 37.5223 58.0703 36.0703C58.0703 30.5463 53.5943 26.0703 48.0703 26.0703ZM28.1875 33.8438L56.875 62.5312C53.8055 67.3722 50.6107 71.8814 48 75.3047C40.488 65.4527 28.0312 46.8516 28.0312 36.0156C28.0312 35.2776 28.1066 34.5597 28.1875 33.8438Z" fill="#4F4AFF"/>
</svg>

<?xml version="1.0" encoding="utf-8"?>
<!-- Generator: Adobe Illustrator 28.0.0, SVG Export Plug-In . SVG Version: 6.00 Build 0)  -->
<svg version="1.1" id="Layer_1" xmlns="http://www.w3.org/2000/svg" xmlns:xlink="http://www.w3.org/1999/xlink" x="0px" y="0px"
	 viewBox="0 0 96 96" style="enable-background:new 0 0 96 96;" xml:space="preserve">
<style type="text/css">
	.st0{fill:#B3B3B3;}
</style>
<path class="st0" d="M48,8c-6.4,0-12.3,2.2-17,5.9l5.7,5.7C39.9,17.4,43.8,16,48,16c11,0,20,9,20,20c0,3.4-1.2,7.5-3.1,11.8l6,6
	c3-6.2,5.1-12.5,5.1-17.8C76,20.6,63.4,8,48,8z M14.8,9.2l-5.7,5.7l12.3,12.3C20.5,29.9,20,32.9,20,36c0,17.9,23.9,47.1,24.9,48.3
	L48,88l3.1-3.7c0.5-0.6,5.9-7.3,11.5-16l18.5,18.5l5.7-5.7L67,61.3c0,0,0,0,0-0.1l-5.9-5.9c0,0,0,0,0,0.1l-30-30c0,0,0,0,0-0.1
	l-5.8-5.8c0,0,0,0,0,0.1L14.8,9.2z M48.1,26.1c-1.4,0-2.8,0.3-4.1,0.9l13.2,13.2c0.6-1.2,0.9-2.6,0.9-4.1
	C58.1,30.5,53.6,26.1,48.1,26.1z M28.2,33.8l28.7,28.7c-3.1,4.8-6.3,9.4-8.9,12.8C40.5,65.5,28,46.9,28,36
	C28,35.3,28.1,34.6,28.2,33.8z"/>
</svg>
